svgs/inure_unlocker.svg

<svg xmlns="http://www.w3.org/2000/svg" viewBox="0 0 192 192"><path fill="none" stroke="#000" stroke-linecap="round" stroke-linejoin="round" stroke-width="12" d="m77.549 129.128 33.94-58.045M78.958 173.844l45.017-76.991M96 175.5c44.364 0 61.137-29.106 61.137-60.752V99.511c0-22.855-9.946-28.428-36.175-28.428H71.038c-26.229 0-36.175 5.573-36.175 28.428v15.237c0 31.646 16.773 60.752 61.137 60.752Z"/><path fill="none" stroke="#000" stroke-linecap="round" stroke-linejoin="round" stroke-width="12" d="M62.991 71.302V49.318C62.991 31.193 77.77 16.5 96 16.5c14.133 0 26.191 8.831 30.897 21.244m2.112 33.558V58.568"/></svg>

<svg
    xmlns="http://www.w3.org/2000/svg"
    viewBox="0 0 192 192"
    id="vector">
    <path
        id="path"
        d="M 77.549 129.128 L 111.489 71.083 M 78.958 173.844 L 123.975 96.853 M 96 175.5 C 140.364 175.5 157.137 146.394 157.137 114.748 L 157.137 99.511 C 157.137 76.656 147.191 71.083 120.962 71.083 L 96 71.083 L 71.038 71.083 C 44.809 71.083 34.863 76.656 34.863 99.511 L 34.863 114.748 C 34.863 146.394 51.636 175.5 96 175.5 Z"
        fill="none"
        stroke="#000000"
        stroke-width="12"
        stroke-linecap="round"
        stroke-linejoin="round"/>
    <path
        id="path_1"
        d="M 62.991 71.302 L 62.991 49.318 C 62.991 31.193 77.77 16.5 96 16.5 C 110.133 16.5 122.191 25.331 126.897 37.744 M 129.009 71.302 L 129.009 58.568"
        fill="none"
        stroke="#000000"
        stroke-width="12"
        stroke-linecap="round"
        stroke-linejoin="round"/>
</svg>
